static/svg/moremoji/forcedsmile.svg

<?xml version="1.0" encoding="UTF-8" standalone="no"?>
<svg
   xmlns:dc="http://purl.org/dc/elements/1.1/"
   xmlns:cc="http://creativecommons.org/ns#"
   xmlns:rdf="http://www.w3.org/1999/02/22-rdf-syntax-ns#"
   xmlns:svg="http://www.w3.org/2000/svg"
   xmlns="http://www.w3.org/2000/svg"
   xmlns:sodipodi="http://sodipodi.sourceforge.net/DTD/sodipodi-0.dtd"
   xmlns:inkscape="http://www.inkscape.org/namespaces/inkscape"
   viewBox="0 0 45 45"
   style="enable-background:new 0 0 45 45;"
   xml:space="preserve"
   version="1.1"
   id="svg2"
   inkscape:version="0.91 r13725"
   sodipodi:docname="thatcustservlook.svg"
   inkscape:export-filename="C:\Users\Soyez\Desktop\Stuff\My Art\somoji\ThatCustomerServiceLook.png"
   inkscape:export-xdpi="1024"
   inkscape:export-ydpi="1024"><sodipodi:namedview
     pagecolor="#ffffff"
     bordercolor="#666666"
     borderopacity="1"
     objecttolerance="10"
     gridtolerance="10"
     guidetolerance="10"
     inkscape:pageopacity="0"
     inkscape:pageshadow="2"
     inkscape:window-width="1920"
     inkscape:window-height="1031"
     id="namedview30"
     showgrid="false"
     showguides="true"
     inkscape:guide-bbox="true"
     inkscape:zoom="1.0000001"
     inkscape:cx="-158.98913"
     inkscape:cy="221.31731"
     inkscape:window-x="-8"
     inkscape:window-y="-8"
     inkscape:window-maximized="1"
     inkscape:current-layer="svg2"><sodipodi:guide
       position="34.162093,1.4584076"
       orientation="0,1"
       id="guide4271" /></sodipodi:namedview><metadata
     id="metadata8"><rdf:RDF><cc:Work
         rdf:about=""><dc:format>image/svg+xml</dc:format><dc:type
           rdf:resource="http://purl.org/dc/dcmitype/StillImage" /><dc:title /></cc:Work></rdf:RDF></metadata><defs
     id="defs6"><inkscape:path-effect
       effect="spiro"
       id="path-effect4515"
       is_visible="true" /><clipPath
       id="clipPath16"
       clipPathUnits="userSpaceOnUse"><path
         id="path18"
         d="M 0,36 36,36 36,0 0,0 0,36 Z" /></clipPath></defs><g
     id="g20"
     transform="matrix(1.25,0,0,-1.25,45,22.735952)"><path
       inkscape:connector-curvature="0"
       d="m 0,0 c 0,-9.941 -8.059,-18 -18,-18 -9.94,0 -18,8.059 -18,18 0,9.94 8.06,18 18,18 C -8.059,18 0,9.94 0,0"
       style="fill:#ffcc4d;fill-opacity:1;fill-rule:nonzero;stroke:none"
       id="path22" /></g><g
     inkscape:groupmode="layer"
     id="layer1"
     inkscape:label="Layer 1"><g
       id="g24-3"
       transform="matrix(1.25,0,0,-1.25,14.157839,26.241079)" /></g><g
     inkscape:groupmode="layer"
     id="layer2"
     inkscape:label="Layer 2"><g
       id="g36-2"
       transform="matrix(0.48102138,0,0,-0.48102138,43.638271,27.022281)"><path
         inkscape:connector-curvature="0"
         d="m 0,0 c 0,-2.762 -2.238,-5 -5,-5 -2.762,0 -5,2.238 -5,5 0,2.762 4,10 5,10 1,0 5,-7.238 5,-10"
         style="fill:#5dadec;fill-opacity:1;fill-rule:nonzero;stroke:none"
         id="path38-12" /></g><g
       id="g36-2-3"
       transform="matrix(0.34502301,0,0,-0.34502301,11.522896,37.673691)"><path
         inkscape:connector-curvature="0"
         d="m 0,0 c 0,-2.762 -2.238,-5 -5,-5 -2.762,0 -5,2.238 -5,5 0,2.762 4,10 5,10 1,0 5,-7.238 5,-10"
         style="fill:#5dadec;fill-opacity:1;fill-rule:nonzero;stroke:none"
         id="path38-12-9" /></g><g
       id="g36-2-3-0"
       transform="matrix(0.54289323,0,0,-0.54289323,6.6035536,19.310399)"><path
         inkscape:connector-curvature="0"
         d="m 0,0 c 0,-2.762 -2.238,-5 -5,-5 -2.762,0 -5,2.238 -5,5 0,2.762 4,10 5,10 1,0 5,-7.238 5,-10"
         style="fill:#5dadec;fill-opacity:1;fill-rule:nonzero;stroke:none"
         id="path38-12-9-9" /></g></g><g
     inkscape:groupmode="layer"
     id="layer3"
     inkscape:label="Layer 3"><g
       id="g4884"><g
         transform="matrix(1.25,0,0,-1.25,18.125,19.559015)"
         id="g32"><path
           id="path34"
           style="fill:#664500;fill-opacity:1;fill-rule:nonzero;stroke:none"
           d="M 0,0 C 0,-1.934 -1.119,-3.5 -2.5,-3.5 -3.881,-3.5 -5,-1.934 -5,0 -5,1.933 -3.881,3.5 -2.5,3.5 -1.119,3.5 0,1.933 0,0"
           inkscape:connector-curvature="0" /></g><g
         transform="matrix(1.25,0,0,-1.25,33.125,19.559015)"
         id="g36-4"><path
           id="path38-1"
           style="fill:#664500;fill-opacity:1;fill-rule:nonzero;stroke:none"
           d="M 0,0 C 0,-1.934 -1.119,-3.5 -2.5,-3.5 -3.881,-3.5 -5,-1.934 -5,0 -5,1.933 -3.881,3.5 -2.5,3.5 -1.119,3.5 0,1.933 0,0"
           inkscape:connector-curvature="0" /></g></g><g
       id="g4977-7"
       transform="matrix(0.87951373,0,0,1.4929414,3.1334733,-7.9334405)"
       style="fill:#ffcc4d;fill-opacity:1"><path
         inkscape:connector-curvature="0"
         d="m 38.150486,15.518215 c -0.319091,-0.239777 -0.751754,-0.349118 -1.182369,-0.263027 -5.793239,1.15227 -9.439426,-1.465655 -9.591985,-1.57873 -0.580576,-0.426884 -1.432496,-0.363421 -1.902002,0.142202 -0.471184,0.507492 -0.38896,1.263528 0.186478,1.695909 0.192502,0.144653 4.789637,3.520939 11.948355,2.098497 0.727863,-0.144176 1.173498,-0.789707 0.996042,-1.440614 -0.0721,-0.265262 -0.235832,-0.489941 -0.454487,-0.654246"
         style="fill:#ffcc4d;fill-opacity:1;fill-rule:nonzero;stroke:none"
         id="path54-8" /><g
         transform="matrix(1.0461959,-0.78615246,0.86091523,0.916703,6.8590762,15.519045)"
         id="g56-44"
         style="fill:#ffcc4d;fill-opacity:1"><path
           id="path58-3"
           style="fill:#ffcc4d;fill-opacity:1;fill-rule:nonzero;stroke:none"
           d="m 0,0 c -0.208,0 -0.419,0.065 -0.599,0.2 -0.442,0.331 -0.531,0.958 -0.2,1.4 3.262,4.35 7.616,4.4 7.8,4.4 0.552,0 1,-0.448 1,-1 C 8.001,4.449 7.556,4.002 7.005,4 6.85,3.998 3.436,3.914 0.801,0.4 0.604,0.138 0.304,0 0,0"
           inkscape:connector-curvature="0" /></g></g></g><path
     id="path54-28"
     style="fill:#f4900c;fill-opacity:1;fill-rule:nonzero;stroke:none"
     d="m 37.828538,23.139705 c -0.269584,0.226998 -0.656725,0.34757 -1.061544,0.298449 -5.445606,-0.655694 -8.538314,1.832386 -8.66736,1.939562 -0.49144,0.404879 -1.281633,0.400419 -1.764232,-0.01037 -0.484333,-0.412356 -0.484367,-1.073235 0.0018,-1.482584 0.162631,-0.136944 4.054373,-3.339528 10.783377,-2.53051 0.684124,0.08192 1.158772,0.61551 1.060661,1.190829 -0.03977,0.234444 -0.167938,0.439117 -0.352671,0.594669"
     inkscape:connector-curvature="0" /><g
     style="fill:#f4900c;fill-opacity:1"
     id="g56-4"
     transform="matrix(0.88388352,0.74426787,0.88388348,-0.74426793,7.1713969,23.138415)"><path
       inkscape:connector-curvature="0"
       d="m 0,0 c -0.208,0 -0.419,0.065 -0.599,0.2 -0.442,0.331 -0.531,0.958 -0.2,1.4 3.262,4.35 7.616,4.4 7.8,4.4 0.552,0 1,-0.448 1,-1 C 8.001,4.449 7.556,4.002 7.005,4 6.85,3.998 3.436,3.914 0.801,0.4 0.604,0.138 0.304,0 0,0"
       style="fill:#f4900c;fill-opacity:1;fill-rule:nonzero;stroke:none"
       id="path58-5" /></g><g
     inkscape:groupmode="layer"
     id="layer4"
     inkscape:label="Layer 4"><g
       style="fill:#664500;fill-opacity:1"
       id="g56-4-6-7"
       transform="matrix(-1.2728236,-0.84184986,-0.8912406,1.2022863,23.321075,29.680409)" /><g
       id="g56-6"
       transform="matrix(0.65125562,-1.242436,1.0605006,0.66545392,7.2184306,19.69193)"><path
         inkscape:connector-curvature="0"
         d="M 6.7800601,7.0635177 C 8.0126324,7.1486904 9.5179353,6.4804925 9.4421149,4.4843969 9.4162559,3.8036181 8.8452108,3.5023613 8.0318183,4.8504529 7.5817713,5.5963468 6.6872241,5.5864453 5.2893399,4.6524933 3.1107929,3.3808787 2.1812471,-2.1200487 1.0477087,-0.27338437 0.15511526,1.1807529 3.6838616,6.8495654 6.7800601,7.0635177 Z"
         style="fill:#664500;fill-opacity:1;fill-rule:nonzero;stroke:none"
         id="path58-7"
         sodipodi:nodetypes="asscsa" /></g><g
       id="g56-6-8"
       transform="matrix(-0.73014851,-1.1621732,-1.0128824,0.78592213,38.267971,18.585775)"><path
         inkscape:connector-curvature="0"
         d="M 5.7437111,6.5624401 C 6.3599972,6.6050264 6.5422034,6.0789969 6.7177834,6.7156254 7.1579995,8.3117867 9.873112,6.3930593 9.9756,5.0456898 10.057843,3.9644699 7.7132799,6.123639 7.6943248,5.6246151 7.6684659,4.9438363 7.3720145,3.0251727 6.558622,4.3732643 6.108575,5.1191582 5.6508751,5.0853677 4.2529909,4.1514157 2.0744439,2.8798011 1.6338142,-1.9217795 0.50027576,-0.07511508 -0.39231764,1.3790221 2.6475126,6.3484879 5.7437111,6.5624401 Z"
         style="fill:#664500;fill-opacity:1;fill-rule:nonzero;stroke:none"
         id="path58-7-2"
         sodipodi:nodetypes="ssssscss" /></g></g><g
     id="g24"
     transform="matrix(1.1915735,0,0,-1.25,23.38364,28.281743)"><path
       inkscape:connector-curvature="0"
       d="M -8.4904728,0.18799885 C -9.097454,0.3148023 -9.8332739,0.32942021 -9.8332739,-1.6065104 c 0,-3.8718612 4.1076267,-8.7116876 9.8332739,-8.7116876 5.7247532,0 8.7947842,4.6276944 8.7947842,8.4995556 0,1.93593058 -0.1423971,2.27583403 -0.7493783,2.14806261 C 5.38774,-0.23006373 3.1171096,-2.8394525 0.29671136,-2.9189644 -2.8259821,-3.0069986 -5.8328071,-0.37148509 -8.4904728,0.18799885 Z"
       style="fill:#664500;fill-opacity:1;fill-rule:nonzero;stroke:none"
       id="path26"
       sodipodi:nodetypes="cssscac" /></g><g
     style="fill:#664500;fill-opacity:1"
     id="g56-4-1"
     transform="matrix(1.8358051,0.15630154,1.5486335,1.2518895,11.421633,27.01915)"><path
       inkscape:connector-curvature="0"
       d="M -0.55096523,0.97064619 C -0.99296523,1.3016462 -1.13,1.158 -0.799,1.6 2.463,5.95 3.1257035,6.6373775 3.3097035,6.6373775 6.3016483,7.0355015 11.212341,-0.04824156 10.890827,-0.12125872 10.735827,-0.12325872 3.436,3.914 0.801,0.4 0.604,0.138 0.26852215,0.49865715 -0.03547785,0.49865715"
       style="fill:#664500;fill-opacity:1;fill-rule:nonzero;stroke:none"
       id="path58-5-4"
       sodipodi:nodetypes="cccccc" /></g><g
     style="fill:#664500;fill-opacity:1"
     id="g56-4-1-5"
     transform="matrix(1.7298603,-0.63418745,1.93261,0.48011644,12.673782,30.289925)"><path
       inkscape:connector-curvature="0"
       d="M 2.058572,6.5592927 C 6.4732621,6.8749923 9.4930764,2.8599102 9.167991,2.5833811 8.7737676,2.248041 7.4332489,4.6819511 3.5664473,3.8763494 1.2382596,3.3912994 1.2488201,0.84084882 -0.28056495,1.9169208"
       style="fill:#664500;fill-opacity:1;fill-rule:nonzero;stroke:none"
       id="path58-5-4-3"
       sodipodi:nodetypes="cssc" /></g><g
     style="fill:#664500;fill-opacity:1"
     id="g56-4-1-8"
     transform="matrix(-0.90892375,0.06990621,0.06198608,0.61118401,14.160661,25.014479)"><path
       inkscape:connector-curvature="0"
       d="M -1.335728,3.4076538 C -0.50081905,5.8164663 3.2148695,6.9883921 4.4933141,6.9582515 5.2001336,6.9415875 5.4882782,4.0410867 4.7896145,3.8515496 2.616074,3.2619003 1.3216566,2.7629621 -0.12375567,1.3100817 -0.73561849,0.69505755 -1.6430562,2.5209751 -1.335728,3.4076538 Z"
       style="fill:#664500;fill-opacity:1;fill-rule:nonzero;stroke:none"
       id="path58-5-4-9"
       sodipodi:nodetypes="sssss" /></g><g
     style="fill:#ffffff;fill-opacity:1"
     id="g24-2"
     transform="matrix(0.83762942,0,0,-0.84382177,21.789042,29.784927)"><path
       inkscape:connector-curvature="0"
       d="m -8.2566013,-0.67097583 c -0.7940784,0.52146749 -1.3887186,0.32349494 -0.9281953,-1.55768737 1.2733658,-5.2015459 5.2365734,-8.8324318 10.9622206,-8.8324318 5.7247532,0 9.987529,5.4634535 9.987529,9.3353147 0,1.93593061 -0.633527,7.12e-4 -4.0937416,-0.5913702 C 5.0135455,-2.8766344 2.7172602,-2.9581122 0.24993709,-2.7332401 -2.6566889,-2.4683298 -5.2481282,-2.2519432 -8.2566013,-0.67097583 Z"
       style="fill:#ffffff;fill-opacity:1;fill-rule:nonzero;stroke:none"
       id="path26-6"
       sodipodi:nodetypes="cssscac" /></g><g
     id="g4234"
     transform="matrix(1.0687665,0,0,0.8233978,-1.2820345,6.0263389)"><g
       transform="translate(0,0.15249905)"
       id="g4197"><g
         style="fill:#664500;fill-opacity:1"
         id="g56-4-1-8-3"
         transform="matrix(-0.16391196,0.87801827,0.39813124,0.15078937,22.668067,35.053793)"><path
           inkscape:connector-curvature="0"
           d="M -4.7038082,2.5033713 C -3.8688993,4.9121838 3.2148695,6.9883921 4.4933141,6.9582515 5.2001336,6.9415875 5.8468058,4.1515885 5.1481421,3.9620514 2.9746016,3.3724021 -2.2062387,1.7256884 -4.0910426,0.26982017 -4.6870974,-0.190587 -5.0111364,1.6166926 -4.7038082,2.5033713 Z"
           style="fill:#664500;fill-opacity:1;fill-rule:nonzero;stroke:none"
           id="path58-5-4-9-4"
           sodipodi:nodetypes="sssss" /></g><path
         inkscape:connector-curvature="0"
         d="m 17.696095,29.86671 c -0.818313,1.096288 -0.485372,7.629037 -0.26486,8.74699 0.121916,0.618087 1.362396,1.273408 1.323521,0.631388 -0.120942,-1.997321 -0.343033,-7.302733 -0.07362,-9.177155 0.0852,-0.592771 -0.683823,-0.604765 -0.985045,-0.201223 z"
         style="fill:#664500;fill-opacity:1;fill-rule:nonzero;stroke:none"
         id="path58-5-4-9-4-4"
         sodipodi:nodetypes="sssss" /><g
         style="fill:#664500;fill-opacity:1"
         id="g56-4-1-8-3-7"
         transform="matrix(-0.14960009,0.80701538,0.36336865,0.13859545,28.579534,33.02821)"><path
           inkscape:connector-curvature="0"
           d="M -4.7038082,2.5033713 C -4.0842716,5.5285128 3.0625466,7.5564683 4.4933141,6.9582515 5.1584865,6.6801369 7.9486723,4.5943283 5.5317385,4.1199793 3.3460458,3.6910138 2.9480877,5.0351078 -4.0910426,0.26982017 -4.7029904,-0.14445081 -4.8958009,1.5658882 -4.7038082,2.5033713 Z"
           style="fill:#664500;fill-opacity:1;fill-rule:nonzero;stroke:none"
           id="path58-5-4-9-4-9"
           sodipodi:nodetypes="sssss" /></g></g><g
       id="g4197-6"
       transform="translate(-0.45838506,0.15249905)"><g
         style="fill:#664500;fill-opacity:1"
         id="g56-4-1-8-3-0"
         transform="matrix(-0.16391196,0.87801827,0.39813124,0.15078937,22.668067,35.053793)"><path
           inkscape:connector-curvature="0"
           d="M -4.7038082,2.5033713 C -3.8688993,4.9121838 3.2148695,6.9883921 4.4933141,6.9582515 5.2001336,6.9415875 5.8468058,4.1515885 5.1481421,3.9620514 2.9746016,3.3724021 -2.2062387,1.7256884 -4.0910426,0.26982017 -4.6870974,-0.190587 -5.0111364,1.6166926 -4.7038082,2.5033713 Z"
           style="fill:#664500;fill-opacity:1;fill-rule:nonzero;stroke:none"
           id="path58-5-4-9-4-5"
           sodipodi:nodetypes="sssss" /></g><path
         inkscape:connector-curvature="0"
         d="m 17.696095,29.86671 c -0.818313,1.096288 -0.485372,7.629037 -0.26486,8.74699 0.121916,0.618087 1.362396,1.273408 1.323521,0.631388 -0.120942,-1.997321 -0.343033,-7.302733 -0.07362,-9.177155 0.0852,-0.592771 -0.683823,-0.604765 -0.985045,-0.201223 z"
         style="fill:#664500;fill-opacity:1;fill-rule:nonzero;stroke:none"
         id="path58-5-4-9-4-4-6"
         sodipodi:nodetypes="sssss" /><g
         style="fill:#664500;fill-opacity:1"
         id="g56-4-1-8-3-7-8"
         transform="matrix(-0.14960009,0.80701538,0.36336865,0.13859545,28.579534,33.02821)"><path
           inkscape:connector-curvature="0"
           d="M -4.7038082,2.5033713 C -4.0842716,5.5285128 3.0625466,7.5564683 4.4933141,6.9582515 5.1584865,6.6801369 7.9486723,4.5943283 5.5317385,4.1199793 3.3460458,3.6910138 2.9480877,5.0351078 -4.0910426,0.26982017 -4.7029904,-0.14445081 -4.8958009,1.5658882 -4.7038082,2.5033713 Z"
           style="fill:#664500;fill-opacity:1;fill-rule:nonzero;stroke:none"
           id="path58-5-4-9-4-9-8"
           sodipodi:nodetypes="sssss" /></g></g></g></svg>

<svg xmlns="http://www.w3.org/2000/svg" xml:space="preserve" viewBox="0 0 45 45"><path d="M0 0c0-9.941-8.059-18-18-18-9.94 0-18 8.059-18 18 0 9.94 8.06 18 18 18C-8.059 18 0 9.94 0 0" style="fill:#ffcc4d;fill-opacity:1;fill-rule:nonzero;stroke:none" transform="matrix(1.25 0 0 -1.25 45 22.736)"/><path d="M0 0a5 5 0 0 0-5-5 5 5 0 0 0-5 5c0 2.762 4 10 5 10S0 2.762 0 0" style="fill:#5dadec;fill-opacity:1;fill-rule:nonzero;stroke:none" transform="matrix(.48102 0 0 -.48102 43.638 27.022)"/><path d="M0 0a5 5 0 0 0-5-5 5 5 0 0 0-5 5c0 2.762 4 10 5 10S0 2.762 0 0" style="fill:#5dadec;fill-opacity:1;fill-rule:nonzero;stroke:none" transform="matrix(.34502 0 0 -.34502 11.523 37.674)"/><path d="M0 0a5 5 0 0 0-5-5 5 5 0 0 0-5 5c0 2.762 4 10 5 10S0 2.762 0 0" style="fill:#5dadec;fill-opacity:1;fill-rule:nonzero;stroke:none" transform="matrix(.5429 0 0 -.5429 6.604 19.31)"/><path d="M0 0c0-1.934-1.119-3.5-2.5-3.5S-5-1.934-5 0s1.119 3.5 2.5 3.5S0 1.933 0 0" style="fill:#664500;fill-opacity:1;fill-rule:nonzero;stroke:none" transform="matrix(1.25 0 0 -1.25 18.125 19.559)"/><path d="M0 0c0-1.934-1.119-3.5-2.5-3.5S-5-1.934-5 0s1.119 3.5 2.5 3.5S0 1.933 0 0" style="fill:#664500;fill-opacity:1;fill-rule:nonzero;stroke:none" transform="matrix(1.25 0 0 -1.25 33.125 19.559)"/><g style="fill:#ffcc4d;fill-opacity:1"><path d="M38.15 15.518a1.5 1.5 0 0 0-1.182-.263c-5.793 1.152-9.44-1.465-9.592-1.579-.58-.426-1.432-.363-1.902.143-.471.507-.389 1.263.187 1.696.192.144 4.79 3.52 11.948 2.098.728-.144 1.173-.79.996-1.44a1.22 1.22 0 0 0-.454-.655" style="fill:#ffcc4d;fill-opacity:1;fill-rule:nonzero;stroke:none" transform="matrix(.87951 0 0 1.49294 3.133 -7.933)"/><g style="fill:#ffcc4d;fill-opacity:1"><path d="M0 0a1 1 0 0 0-.799 1.6C2.463 5.95 6.817 6 7.001 6a1 1 0 0 0 .004-2C6.85 3.998 3.436 3.914.801.4A1 1 0 0 0 0 0" style="fill:#ffcc4d;fill-opacity:1;fill-rule:nonzero;stroke:none" transform="matrix(.92014 -1.17368 .75719 1.36858 9.166 15.236)"/></g></g><path d="M37.829 23.14c-.27.227-.657.347-1.062.298-5.446-.656-8.538 1.833-8.667 1.94-.492.405-1.282.4-1.765-.01-.484-.413-.484-1.074.002-1.483.163-.137 4.055-3.34 10.784-2.53.684.081 1.158.615 1.06 1.19a1 1 0 0 1-.352.595" style="fill:#f4900c;fill-opacity:1;fill-rule:nonzero;stroke:none"/><g style="fill:#f4900c;fill-opacity:1"><path d="M0 0a1 1 0 0 0-.799 1.6C2.463 5.95 6.817 6 7.001 6a1 1 0 0 0 .004-2C6.85 3.998 3.436 3.914.801.4A1 1 0 0 0 0 0" style="fill:#f4900c;fill-opacity:1;fill-rule:nonzero;stroke:none" transform="scale(1.25 -1.05256)rotate(-45 -23.667 -17.916)"/></g><path d="M6.78 7.064c1.233.085 2.738-.584 2.662-2.58-.026-.68-.597-.982-1.41.366-.45.746-1.345.736-2.743-.198C3.111 3.381 2.181-2.12 1.048-.273.155 1.18 3.684 6.85 6.78 7.064" style="fill:#664500;fill-opacity:1;fill-rule:nonzero;stroke:none" transform="matrix(.65126 -1.24244 1.0605 .66545 7.218 19.692)"/><path d="M5.744 6.562c.616.043.798-.483.974.154.44 1.596 3.155-.323 3.258-1.67.082-1.082-2.263 1.078-2.282.579-.026-.681-.322-2.6-1.135-1.252-.45.746-.908.712-2.306-.222C2.074 2.88 1.633-1.922.5-.075c-.892 1.454 2.148 6.423 5.244 6.637" style="fill:#664500;fill-opacity:1;fill-rule:nonzero;stroke:none" transform="matrix(-.73015 -1.16217 -1.01288 .78592 38.268 18.586)"/><path d="M-8.49.188c-.607.127-1.343.141-1.343-1.795 0-3.871 4.107-8.711 9.833-8.711 5.725 0 8.795 4.627 8.795 8.5 0 1.935-.143 2.275-.75 2.147C5.388-.23 3.117-2.839.297-2.919-2.826-3.007-5.833-.371-8.49.188" style="fill:#664500;fill-opacity:1;fill-rule:nonzero;stroke:none" transform="matrix(1.19157 0 0 -1.25 23.384 28.282)"/><g style="fill:#664500;fill-opacity:1"><path d="M-.551.97c-.442.332-.579.188-.248.63C2.463 5.95 3.126 6.637 3.31 6.637c2.992.399 7.902-6.685 7.58-6.758C10.737-.123 3.437 3.914.802.4.604.138.269.499-.035.499" style="fill:#664500;fill-opacity:1;fill-rule:nonzero;stroke:none" transform="matrix(1.8358 .1563 1.54863 1.25189 11.422 27.02)"/></g><g style="fill:#664500;fill-opacity:1"><path d="M2.059 6.56c4.414.315 7.434-3.7 7.109-3.977-.394-.335-1.735 2.099-5.602 1.293C1.238 3.391 1.25.841-.28 1.916" style="fill:#664500;fill-opacity:1;fill-rule:nonzero;stroke:none" transform="matrix(1.72986 -.63419 1.93261 .48012 12.674 30.29)"/></g><g style="fill:#664500;fill-opacity:1"><path d="M-1.336 3.408c.835 2.408 4.55 3.58 5.83 3.55.706-.016.994-2.917.296-3.106-2.174-.59-3.468-1.089-4.914-2.542-.612-.615-1.52 1.211-1.212 2.098" style="fill:#664500;fill-opacity:1;fill-rule:nonzero;stroke:none" transform="matrix(-.90892 .0699 .06199 .61118 14.16 25.014)"/></g><g style="fill:#fff;fill-opacity:1"><path d="M-8.257-.671c-.794.521-1.388.324-.928-1.558C-7.91-7.43-3.948-11.06 1.777-11.06s9.988 5.463 9.988 9.335c0 1.936-.634 0-4.094-.591-2.657-.56-4.954-.641-7.421-.416-2.907.265-5.498.481-8.507 2.062" style="fill:#fff;fill-opacity:1;fill-rule:nonzero;stroke:none" transform="matrix(.83763 0 0 -.84382 21.789 29.785)"/></g><g style="fill:#664500;fill-opacity:1"><path d="M-4.704 2.503c.835 2.41 7.919 4.485 9.197 4.455.707-.016 1.354-2.806.655-2.996C2.975 3.372-2.206 1.726-4.09.27c-.596-.46-.92 1.347-.613 2.233" style="fill:#664500;fill-opacity:1;fill-rule:nonzero;stroke:none" transform="matrix(-.17518 .72296 .4255 .12416 22.945 35.015)"/></g><path d="M17.696 29.867c-.818 1.096-.485 7.629-.265 8.747.122.618 1.363 1.273 1.324.631-.121-1.997-.343-7.303-.074-9.177.085-.593-.684-.605-.985-.201" style="fill:#664500;fill-opacity:1;fill-rule:nonzero;stroke:none" transform="matrix(1.06877 0 0 .8234 -1.282 6.152)"/><g style="fill:#664500;fill-opacity:1"><path d="M-4.704 2.503c.62 3.026 7.767 5.053 9.197 4.455.665-.278 3.456-2.364 1.039-2.838-2.186-.429-2.584.915-9.623-3.85-.612-.414-.805 1.296-.613 2.233" style="fill:#664500;fill-opacity:1;fill-rule:nonzero;stroke:none" transform="matrix(-.15989 .6645 .38836 .11412 29.263 33.347)"/></g><g style="fill:#664500;fill-opacity:1"><path d="M-4.704 2.503c.835 2.41 7.919 4.485 9.197 4.455.707-.016 1.354-2.806.655-2.996C2.975 3.372-2.206 1.726-4.09.27c-.596-.46-.92 1.347-.613 2.233" style="fill:#664500;fill-opacity:1;fill-rule:nonzero;stroke:none" transform="matrix(-.17518 .72296 .4255 .12416 22.455 35.015)"/></g><path d="M17.696 29.867c-.818 1.096-.485 7.629-.265 8.747.122.618 1.363 1.273 1.324.631-.121-1.997-.343-7.303-.074-9.177.085-.593-.684-.605-.985-.201" style="fill:#664500;fill-opacity:1;fill-rule:nonzero;stroke:none" transform="matrix(1.06877 0 0 .8234 -1.772 6.152)"/><g style="fill:#664500;fill-opacity:1"><path d="M-4.704 2.503c.62 3.026 7.767 5.053 9.197 4.455.665-.278 3.456-2.364 1.039-2.838-2.186-.429-2.584.915-9.623-3.85-.612-.414-.805 1.296-.613 2.233" style="fill:#664500;fill-opacity:1;fill-rule:nonzero;stroke:none" transform="matrix(-.15989 .6645 .38836 .11412 28.773 33.347)"/></g></svg>
